X: 26
T:Tanning the Leather (#136)
M:6/8
L:1/8
S:Rice-Walsh manuscript
K:G
c|BGG DGG|BGG G2 c|BGG DGG|GBA/2G/2 F2 c|
BGG DGG|BGG c2 A|B/2c/2dB cAG|FDD D2:|
|:d|gdc BAG|GBd def|gdc BAG|FAA ABd|
1gdc BAG|GBd c2 A|B/2c/2dB cAG|FDD D2:|
2gfg/2f/2 gdc|BGB c2 A|B/2c/2dB cAG|FDD D2||

